X: 46
T:Ton Can Pennsylvania
T:Pennsylvania song
M:3/4
L:1/8
Q:200
S:Mary Richards' (1787-1877) Collection
R:Waltz
A:Wales
Z:brian_martin12345@yahoo.com
K:Am
ed|c3cBA|A3^GAB|c2Bc dc|B4ed|c3cBA|A3^GAB|c2Bc dc|B4||]!
ef|g3edc|d2e2gf|e3dec|B4Bc|d2e2fe|ed cB cA|B2BA A^G|A4:||
